X: 121
T:Tumblers Hornpipe. GS.121
T:Washington Hp,aka. GS.121
T:Y Fasged Wyau,aka. GS.121
M:2/2
L:1/8
Q:160
S:George Spencer m/s, Leeds,1831
R:Hornpipe
O:England
A:Leeds
N:aka Basket of Eggs/Egg Basket/William Andrews Hp
N:C(Sheepstor,Dartmoor)and a version from Quebec, title
N:unknown.Also Daniel's Hp,J.Clare ms...'George Spencer Leeds 1831'
N:written on stave after music
H:1831
Z:vmp.Cherri Graebe
K:BB major
Bcde fBAB | gBaB bBAB | GBFB EBDB | edcB BAGF | Bcde fBAB |!
 gBaB gBAB | 
GBFB EBDB | ecBA B4 || fBAB gBAB | fBAB gBAB |! gbba gfge | edcB BAGF
 | Bcde fBAB |
gBaB bBAB | GBFB EBDB | dcBA "cr"B4|]
